X: 12
T: Bill Sullivan's
C: Terry Teahan
Z: NfldWhistler
S: https://thesession.org/tunes/481#setting48247
R: polka
M: 2/4
L: 1/8
K: Dmaj
|:d2 d>B|AF d>B|AF d>B|AF ED|
d2 d>B|AF d>B|AF EF|ED D2:|
|:FA AF|GB BG|FA AF|GE ED/E/|
FA AF|GB BG|AF EF|ED D2:|

